X: 308
T: Hong yun
%%abc-version 2.0
%%abcx-abcm2ps-target-version 5.9.1 (29 Sep 2008)
%%abc-creator hum2abc beta
%%abcx-conversion-date 2013/10/02 07:52:30
%%abc-edited-by Helmut Schaffrath
%%humdrum-veritas 2220532796
%%humdrum-veritas-data 1347220099
%%continueall 1
%%barnumbers 0
L: 1/8
M: 2/4
K: Bb
d' f' g3/ b/ [I:setbarnb 1]| 
f4 | 
c' d' b a/ g/ | 
f4 | 
f gb2 | 
d' a g f | 
b b d g | 
f4 | 
f gb2 | 
d' d' c' d' | 
f d f a | 
g fd2 | 
c> d f a | 
g f d c | 
d' a d'/ f'/ d'/ c'/ | 
b4 | 
f' c'/ d'/ a g | 
f4 | 
c> d f a | 
g f d c | 
d' a d'/ f'/ d'/ c'/ | 
b4 |]  



